icon_installer/data/icons/scalable/actions/show-school-symbolic.svg

<?xml version="1.0" encoding="UTF-8"?>
<svg height="16px" viewBox="0 0 16 16" width="16px" xmlns="http://www.w3.org/2000/svg">
    <path d="m 6.96875 2.96875 l -6.46875 3.5 l 6.5 4.09375 l 5.800781 -3.53125 h 0.207031 v 2.871094 c -0.003906 0.03125 -0.007812 0.066406 -0.007812 0.101562 s 0.003906 0.070313 0.007812 0.105469 v 0.914063 c 0.027344 0.695312 0.441407 1.210937 0.800782 1.554687 c 0.359375 0.339844 0.714844 0.535156 0.714844 0.535156 l 0.488281 -0.875 s -0.253907 -0.140625 -0.515625 -0.386719 c -0.253906 -0.242187 -0.460938 -0.550781 -0.484375 -0.84375 c 0.550781 -0.003906 0.996093 -0.453124 0.996093 -1.003906 c -0.003906 -0.554687 -0.449218 -1.003906 -1 -1.003906 v -2.96875 h -1.316406 z m 0.03125 3.03125 c 0.550781 0 1 0.222656 1 0.5 s -0.449219 0.5 -1 0.5 s -1 -0.222656 -1 -0.5 s 0.449219 -0.5 1 -0.5 z m -3.96875 3.421875 c -0.011719 0.089844 -0.03125 0.179687 -0.03125 0.273437 c 0 1.824219 1.789062 3.304688 4 3.304688 s 4 -1.480469 4 -3.304688 c 0 -0.070312 -0.027344 -0.136718 -0.03125 -0.207031 l -3.96875 2.511719 z m 0 0" fill="#222222"/>
</svg>

<svg xmlns="http://www.w3.org/2000/svg" width="16" height="16"><path fill="#222" d="M6.969 2.969.5 6.469 7 10.562l5.8-3.53h.208v2.87c-.004.032-.008.067-.008.102s.004.07.008.105v.914c.027.696.441 1.211.8 1.555.36.34.715.535.715.535l.489-.875s-.254-.14-.516-.386c-.254-.243-.46-.551-.484-.844A1.004 1.004 0 0 0 14.008 9V6.031H12.69zM7 6c.55 0 1 .223 1 .5S7.55 7 7 7s-1-.223-1-.5.45-.5 1-.5zM3.031 9.422c-.011.09-.031.18-.031.273C3 11.52 4.79 13 7 13s4-1.48 4-3.305c0-.07-.027-.136-.031-.207L7 12zm0 0"/></svg>
